X:308
T:Frosty Morning
S:Fuzzy Mountain String Band
Z:Nigel Gatherer
M:4/4
L:1/8
K:Am
a4 a4|abag edcd|ede^f gagf|edcd e4|
A4 c3 c|dc d2 e2 ed|cBAc BA G2|A4 A4:|
EDEG A2 A2|cAcd e2 (3DEF|G2 BA G2 D2|GABc d4|
EDEG A2 A2|cAcd e2 ed|cBAc BA G2|A4 A4:|
<end>
<start>
